X:1
T:George Reilly (4)
M:2/2
L:1/4
K:D
 D/2D/2|
M:3/2
 A3 F A F|
M:2/2
 D2 F A| A A F E| D3 A| A3/2 F/2 A B| d f2 d| e3 d|(2A15.9999925000037/23.999988000006A15.9999925000037/23.999988000006F15.9999925000037/23.999988000006 A15.9999925000037/23.999988000006
M:2/2
| B3 A| A A A3/2 F/2| d f2 d|
M:3/2
 e3 d(2A15.9999925000037/23.999988000006A15.9999925000037/23.999988000006F15.9999925000037/23.999988000006 A15.9999925000037/23.999988000006|\
